build/img/footer-social-links/fb.svg

<svg xmlns="http://www.w3.org/2000/svg" viewBox="0 0 13.5 27.8"><path d="M9.5 27.8H2.7v-13H0V8.5h2.6c-.2-2.9.3-5 1.5-6.5C5.1.8 6.7.1 8.7 0h4.8v6.2H9.8c-.2.3-.3 1-.3 2.3h4v6.4h-4v12.9zm-5.3-1.5H8v-13h4V10H8v-.7c0-2 0-3.8 1-4.5l.2-.1H12V1.5H8.8c-1.6.1-2.7.6-3.5 1.5-1 1.2-1.4 3.3-1.1 6.1l.1.9H1.5v3.4h2.7v12.9z"/></svg>

<?xml version="1.0" encoding="utf-8"?>
<!-- Generator: Adobe Illustrator 22.1.0, SVG Export Plug-In . SVG Version: 6.00 Build 0)  -->
<svg version="1.1" id="Layer_1" xmlns="http://www.w3.org/2000/svg" xmlns:xlink="http://www.w3.org/1999/xlink" x="0px" y="0px"
	 viewBox="0 0 13.5 27.8" style="enable-background:new 0 0 13.5 27.8;" xml:space="preserve">
<g>
	<path d="M9.5,27.8H2.7V14.8H0V8.5h2.6C2.4,5.6,2.9,3.5,4.1,2c1-1.2,2.6-1.9,4.6-2l4.8,0v6.2H9.8C9.6,6.5,9.5,7.2,9.5,8.5h4v6.4h-4
		V27.8z M4.2,26.3H8V13.3h4V10H8l0-0.7c0-2,0-3.8,1-4.5l0.2-0.1H12V1.5H8.8C7.2,1.6,6.1,2.1,5.3,3c-1,1.2-1.4,3.3-1.1,6.1L4.3,10
		H1.5v3.4h2.7V26.3z"/>
</g>
</svg>
